X:9
T:Sir John Fenwick. JBa.09
M:3/4
L:1/4
Q:3/4=60
S:Joseph Barnes MS,Carlisle,1762.
R:.Air
O:England
A:Carlisle
N:Great Version..No Time signature.. Key signature is 3 sharp, though
N:not necessarily
N:the right three, even if it were A major, which it isn't...NB Notes
N:marked " have two little dashes - " - written either under or over
N:them. 2 and 3 are written in the MS to indicate parts...
Z:vmp.C.Graebe.
K:D major
"_As Writ,see note"
DDF | AAd | AAd | F>ED | EEG | B2d |\
e/f/g/f/e/d/ | B2A |!
DDF |AAd | AAd | F>ED | G2 A/B/ |\
B/4d/4 A/4F/4 ""(NB)"E>D | """B2 A :|!
|:"^Part 2"d"""DF | d"""DF | d"""DF |\
"""F2 E/D/ | e"""EF | e"""EF|\
e/f/g/f/e/d/ | B2 A |!
d"""DF | d"""DF | d"""DF | """F>ED |\
G2 A/B/ | B/4d/4 A/4F/4 """E>D | """B2 A ||!
"^Part 3" dD/E/F/D/ |\
d A/B/c/A/ | d B/c/d/B/ | A F/G/A/F/ | eE/ """F3/2 |\
eE/ """F3/2 |!
e/f/g/f/e/d/ | B2A | d D/E/F/D/ | d A/B/c/A/ |\
d B/c/d/B/ | A F/G/A/F/ |!
G2 A/B/ | B/4d/4 A/4F/4 """E>D |\
"""B2 A | D/B/,A,/B,/ D | A/F/E/F/ A | d/B/A/B/ d |!
"""F2 E/D/ |\
EEG| """B2d | e/f/g/f/e/d/ | """B2A || D/B/,A,/B,/ D |!
A/F/E/F/ A | d/B/A/B/ d | """F2 E/D/ | G2 A/B/ |\
B/4d/4 A/4F/4 """E>D | """B2 A|]

